icon/ethereum/usdt.svg

<svg xmlns="http://www.w3.org/2000/svg" width="22" height="22" viewBox="0 0 22 22">
  <path fill="#FFF" fill-rule="evenodd" d="M11,0 C17.0751322,0 22,4.92486775 22,11 C22,17.0751322 17.0751322,22 11,22 C4.92486775,22 0,17.0751322 0,11 C0,4.92486775 4.92486775,0 11,0 Z M15.5885714,5.65714286 L6.53714286,5.65714286 L6.53714286,8.18098286 L9.80571429,8.18098286 L9.80571429,9.70011429 C7.10386286,9.85750857 5.02857143,10.4855771 5.02857143,11.2373486 C5.02857143,11.98912 7.10386286,12.6176914 9.80571429,12.7735771 L9.80571429,16.72 L12.32,16.72 L12.32,12.7796114 C15.0721371,12.6337829 17.0971429,11.9981714 17.0971429,11.2373486 C17.0971429,10.4760229 15.0716343,9.84141714 12.32,9.69508571 L12.32,8.18098286 L15.5885714,8.18098286 L15.5885714,5.65714286 Z M12.32,9.97115429 C14.6899657,10.0762514 16.4107429,10.4815543 16.4107429,10.9658057 C16.4107429,11.5305143 14.01664,11.9876114 11.0628571,11.9876114 C8.10907429,11.9876114 5.71497143,11.5300114 5.71497143,10.9658057 C5.71497143,10.4875886 7.48653714,10.0868114 9.80571429,9.97517714 L9.80571429,11.4415086 C10.2235886,11.46464 10.6087771,11.4767086 11.0628571,11.4767086 C11.4807314,11.4767086 11.9322971,11.4666514 12.32,11.4465371 L12.32,9.97115429 Z"/>
</svg>

<svg xmlns="http://www.w3.org/2000/svg" xmlns:xlink="http://www.w3.org/1999/xlink" width="22" height="22" viewBox="0 0 22 22">
    <defs>
        <path id="a8du4gaiza" d="M11 0c6.075 0 11 4.925 11 11s-4.925 11-11 11S0 17.075 0 11 4.925 0 11 0zm4.589 5.657H6.537v2.524h3.269v1.52c-2.702.157-4.777.785-4.777 1.536 0 .752 2.075 1.38 4.777 1.537v3.946h2.514v-3.94c2.752-.146 4.777-.782 4.777-1.543 0-.761-2.025-1.396-4.777-1.542V8.181h3.269V5.657zM12.32 9.971c2.37.105 4.09.51 4.09.995 0 .565-2.393 1.022-5.347 1.022-2.954 0-5.348-.458-5.348-1.022 0-.478 1.772-.88 4.09-.99v1.466c.419.023.804.035 1.258.035.418 0 .87-.01 1.257-.03V9.97z"/>
    </defs>
    <g fill="none" fill-rule="evenodd">
        <g>
            <g>
                <path d="M0 0H22V22H0z" transform="translate(-209 -14) translate(209 14)"/>
                <g transform="translate(-209 -14) translate(209 14)">
                    <mask id="1vnrdnwfnb" fill="#fff">
                        <use xlink:href="#a8du4gaiza"/>
                    </mask>
                    <use fill="#FFF" xlink:href="#a8du4gaiza"/>
                    <g mask="url(#1vnrdnwfnb)">
                        <path d="M0 0H22V22H0z"/>
                    </g>
                </g>
            </g>
        </g>
    </g>
</svg>
